X:334
T:Of Noble Race Was Shinkin. (p)1695.PLFD.334
M:4/4
L:1/4
Q:1/2=100
S:Playford, Dancing Master,9th Ed,1695.
O:England
H:1695.
Z:Chris Partington.
K:F
e|f(e/d/) (^c/d/)(e/c/)|dD2e|f(e/d/) (^c/d/)(e/c/)|d3:|
|:e|ffcc|ff3|F2E2|D2^Ce|
ffe>e|dd^c>A|BGA^c|dd2:|
